cainiao.svg

<svg  viewBox="0 0 24 24" xmlns="http://www.w3.org/2000/svg"><path d="M4.76074 9.34253C4.47979 10.1007 3.75241 10.6395 2.89801 10.6395C1.80115 10.6395 0.908274 9.75048 0.908274 8.65362L0.908274 8.23028C0.908274 7.13342 1.79731 6.24439 2.89801 6.24439C3.75241 6.24439 4.47979 6.78319 4.76074 7.53752L5.7075 7.53752C5.39577 6.26748 4.25657 5.33226 2.89416 5.33226C1.29699 5.33226 1.77636e-15 6.62925 1.77636e-15 8.22643L1.77636e-15 8.65747C0.00384862 10.2508 1.29699 11.5439 2.89416 11.5439C4.25657 11.5439 5.39577 10.6049 5.7075 9.34253L4.76074 9.34253ZM21.1058 12.4522C19.5087 12.4522 18.2117 13.7492 18.2117 15.3464L18.2117 15.7774C18.2155 17.3708 19.5087 18.6639 21.1058 18.6639C22.703 18.6639 24 17.3669 24 15.7697L24 15.3464C24 13.7492 22.703 12.4522 21.1058 12.4522M23.0956 15.7697C23.0956 16.8666 22.2065 17.7556 21.1058 17.7556C20.009 17.7556 19.1161 16.8666 19.1161 15.7697L19.1161 15.3464C19.1161 14.2495 20.0051 13.3605 21.1058 13.3605C22.2027 13.3605 23.0956 14.2495 23.0956 15.3464L23.0956 15.7697ZM13.9551 5.33226L14.8634 5.33226L14.8634 11.5439L13.9551 11.5439L13.9551 5.33226ZM14.9096 12.4522L13.9051 12.4522L11.5112 18.6677L15.356 18.6677L15.0096 17.7595L12.8352 17.7595L14.4092 13.6761L16.3297 18.6677L17.3034 18.6677L14.9096 12.4522ZM9.14047 10.6395L10.0487 10.6395L10.0487 16.855L9.14047 16.855L9.14047 10.6395ZM10.0949 17.7595L9.09044 17.7595L8.74022 18.6677L10.4452 18.6677L10.0949 17.7595ZM6.6966 9.73124L10.5414 9.73124L10.1911 8.82296L8.02053 8.82296L9.36369 5.33226L8.38999 5.33226L6.6966 9.73124ZM9.82168 5.33226L11.5151 9.73124L12.4888 9.73124L10.7954 5.33226L9.82168 5.33226ZM4.8839 12.4522L4.8839 17.2437L0.912123 12.4522L7.34066e-08 12.4522L7.34066e-08 18.6677L0.908275 18.6677L0.908275 13.8685L4.8839 18.6677L5.79217 18.6677L5.79217 12.4522L4.8839 12.4522Z" fill="#0066ff"/></svg>

<svg viewBox="0 0 24 24" xmlns="http://www.w3.org/2000/svg"><path d="M4.76 9.343a1.99 1.99 0 0 1-3.852-.689V8.23c0-1.097.89-1.986 1.99-1.986.854 0 1.582.54 1.863 1.294h.946A2.896 2.896 0 0 0 0 8.227v.43a2.894 2.894 0 0 0 2.894 2.887 2.899 2.899 0 0 0 2.813-2.201h-.946Zm16.346 3.11a2.896 2.896 0 0 0-2.894 2.893v.431A2.894 2.894 0 0 0 24 15.77v-.424a2.896 2.896 0 0 0-2.894-2.894m1.99 3.318c0 1.097-.89 1.986-1.99 1.986a1.99 1.99 0 0 1-1.99-1.986v-.424c0-1.097.89-1.986 1.99-1.986a1.99 1.99 0 0 1 1.99 1.986v.424Zm-9.14-10.438h.907v6.212h-.908V5.332Zm.954 7.12h-1.005l-2.394 6.216h3.845l-.346-.909h-2.175l1.574-4.083 1.92 4.992h.974l-2.393-6.216ZM9.14 10.64h.909v6.216H9.14v-6.216Zm.955 7.12H9.09l-.35.909h1.705l-.35-.909ZM6.697 9.731h3.844l-.35-.908h-2.17l1.343-3.49H8.39L6.697 9.73Zm3.125-4.399 1.693 4.4h.974l-1.694-4.4h-.973Zm-4.938 7.12v4.792L.912 12.452H0v6.216h.908v-4.8l3.976 4.8h.908v-6.216h-.908Z" fill="#06f"/></svg>
